src/assets/images/features-icon-4.svg

<svg width="58" height="58" viewBox="0 0 58 58" fill="none" xmlns="http://www.w3.org/2000/svg">
<path d="M29.164 12.1642C38.537 12.1337 46.2608 19.6143 46.1686 28.8485C46.0866 37.5556 39.295 45.6545 29.4201 45.7052C19.9037 45.7458 12.3233 38.3361 12.2926 29.0006C12.2618 19.7258 19.8115 12.1946 29.164 12.1642Z" fill="#3B45FF"/>
<path d="M40.473 53.357C39.4589 53.2759 38.4242 53.0631 37.4203 53.1442C36.4472 53.2151 35.4126 53.4179 34.5624 53.8639C33.0565 54.6545 31.6531 55.6377 30.2497 56.5905C29.502 57.0973 28.8873 57.0771 28.16 56.5703C26.7566 55.6073 25.3737 54.6038 23.8577 53.8233C22.9665 53.3672 21.8704 53.1746 20.8562 53.134C19.289 53.0732 17.7012 53.2354 16.1339 53.3469C15.3349 53.3976 14.8637 53.0631 14.5461 52.3535C14.0442 51.2284 13.4193 50.1641 12.9788 49.0288C12.2105 47.0117 10.6945 45.846 8.7584 45.0858C8.67645 45.0554 8.60474 45.0149 8.52279 44.9844C4.45603 43.2511 4.32286 43.2309 4.96822 38.9128C5.32675 36.4902 4.74285 34.5136 3.28824 32.6688C2.91947 32.2025 2.58143 31.716 2.25363 31.2193C0.717067 28.8981 0.460974 29.2732 2.26387 27.2155C4.917 24.1847 5.56235 20.8296 4.80432 17.1197C4.46627 15.4776 5.07065 14.6769 6.50478 14.1903C6.70965 14.1194 6.88379 13.9977 7.07842 13.9065C10.2062 12.3387 12.5349 9.96685 14.0646 6.79081C14.6656 5.5339 15.6934 4.94937 17.148 5.03722C18.3773 5.10818 19.6168 5.169 20.846 5.29063C22.0855 5.40213 23.1918 5.15886 24.2264 4.42904C25.5479 3.4965 26.9615 2.69573 28.2727 1.76319C28.9488 1.28679 29.4917 1.33747 30.1268 1.77333C31.1717 2.50314 32.319 3.11132 33.3024 3.91209C34.9516 5.25009 36.816 5.49336 38.834 5.27036C39.9813 5.14872 41.1286 5.13859 42.2759 4.99668C43.0954 4.89531 43.5563 5.25009 43.8841 5.92922C44.4783 7.14558 45.1851 8.32139 45.687 9.56816C46.3734 11.2609 47.6129 12.2948 49.2211 13.0348C50.4196 13.5821 51.6386 14.1092 52.7655 14.7884C53.1855 15.0418 53.5952 15.6702 53.6054 16.1365C53.6362 17.6468 53.5235 19.1672 53.3801 20.6877C53.2469 22.0865 53.4108 23.3434 54.3225 24.5091C55.2342 25.6748 55.9615 26.9823 56.8322 28.1784C57.3649 28.9082 57.3547 29.5468 56.8527 30.2564C56.2483 31.1281 55.7669 32.1012 55.0498 32.8715C53.3391 34.6859 53.1855 36.8044 53.3903 39.1155C53.841 44.2039 54.3327 42.9369 50.1123 44.8729C47.8177 45.9271 46.0046 47.2144 45.1749 49.637C45.0417 50.0323 44.7651 50.377 44.6115 50.7723C43.8944 52.688 42.8905 54.1375 40.4627 53.3672L40.473 53.357ZM47.8792 29.3238C47.9202 19.0963 39.715 10.8859 29.5839 10.6832C18.787 10.4703 10.4076 19.4916 10.4281 28.9285C10.4486 39.227 18.746 47.4881 28.9795 47.6807C38.6701 47.8632 48.3094 39.7642 47.8792 29.3238Z" fill="#3B45FF"/>
<path d="M47.8792 29.3241C48.2992 39.7645 38.6599 47.8634 28.9795 47.6809C18.746 47.4883 10.4384 39.2171 10.4281 28.9287C10.4077 19.4918 18.787 10.4705 29.5839 10.6834C39.715 10.8861 47.9202 19.0965 47.8792 29.3241ZM29.1537 12.4066C19.8114 12.437 12.2618 19.9682 12.2823 29.243C12.313 38.5785 19.8831 45.9882 29.4098 45.9476C39.2847 45.8969 46.0661 37.798 46.1583 29.0909C46.2505 19.8567 38.5267 12.3761 29.1537 12.4066Z" fill="white"/>
<path d="M25.2309 34.5366C25.0977 34.4049 24.9645 34.2832 24.8416 34.1514C24.7084 34.0197 24.5855 33.8676 24.4524 33.7359C24.3602 33.6446 24.268 33.5534 24.1758 33.4723C23.9504 33.2696 25.4562 30.6646 25.5997 30.8065C25.866 31.0599 26.1221 31.3133 26.3987 31.5667C26.5728 31.7187 26.6752 31.7086 26.8391 31.5464C27.3001 31.0801 27.7611 30.6139 28.2323 30.1476C28.7547 29.6306 29.2874 29.1238 29.8201 28.6069C30.1479 28.2927 30.4552 27.9582 30.783 27.6439C31.0493 27.3804 31.3157 27.127 31.582 26.8634C31.961 26.4884 32.3298 26.1032 32.719 25.7282C33.0264 25.4342 33.3337 25.1403 33.641 24.8463C33.8971 24.5929 34.1532 24.3294 34.4093 24.0759C34.8088 23.6806 35.2083 23.2853 35.6078 22.89C35.8229 22.6771 38.4043 24.157 38.138 24.4409C37.7692 24.8362 37.4004 25.2518 37.0214 25.6369C36.6424 26.012 36.2531 26.3769 35.8844 26.7519C35.5975 27.0358 35.3209 27.3297 35.0239 27.6135C34.7268 27.9075 34.4195 28.1913 34.1224 28.4954C33.8561 28.7589 33.6 29.0326 33.3234 29.2962C33.0161 29.6002 32.6986 29.8942 32.3912 30.1983C32.0942 30.4922 31.8074 30.7862 31.5205 31.0801C31.3157 31.2829 31.1005 31.4755 30.8957 31.6782C30.6805 31.891 30.4757 32.1039 30.2605 32.3066C29.9737 32.5905 29.6869 32.8641 29.4001 33.148C29.1747 33.3709 28.9596 33.5838 28.7445 33.8068C28.5498 33.9994 28.3655 34.1819 28.1708 34.3744C27.9455 34.5974 27.7303 34.8204 27.4947 35.0333C27.2796 35.236 27.0747 35.459 26.7879 35.5604C26.624 35.6212 26.4704 35.6111 26.327 35.5097" fill="white"/>
<path d="M38.0114 22.4898C38.585 23.0575 38.5543 24.061 37.8782 24.7401C37.2021 25.4192 36.147 25.5105 35.5631 24.9428C34.9793 24.3752 35.0612 23.3717 35.7373 22.6926C36.4134 22.0134 37.4275 21.9222 38.0011 22.4898H38.0114Z" fill="white"/>
<path d="M25.5892 30.7931C25.0873 30.2153 24.6365 29.7693 24.2165 29.4348C22.7107 28.2185 20.8156 30.3978 22.2395 31.7054L26.3165 35.4862L24.1653 33.459" fill="white"/>
</svg>

<svg xmlns="http://www.w3.org/2000/svg" width="58" height="58" fill="none"><path fill="#3B45FF" d="M29.164 12.164c9.373-.03 17.097 7.45 17.005 16.684-.082 8.708-6.874 16.806-16.749 16.857-9.516.04-17.097-7.369-17.127-16.704-.031-9.275 7.518-16.806 16.871-16.837Z"/><path fill="#3B45FF" d="M40.473 53.357c-1.014-.081-2.049-.294-3.053-.213-.973.071-2.007.274-2.858.72-1.505.79-2.909 1.774-4.312 2.727-.748.506-1.363.486-2.09-.02-1.403-.964-2.786-1.967-4.302-2.748-.892-.456-1.988-.648-3.002-.689-1.567-.06-3.155.101-4.722.213-.8.05-1.27-.284-1.588-.994-.502-1.125-1.127-2.189-1.567-3.324-.768-2.017-2.284-3.183-4.22-3.943-.083-.03-.154-.071-.236-.102-4.067-1.733-4.2-1.753-3.555-6.071.359-2.423-.225-4.4-1.68-6.244a20.735 20.735 0 0 1-1.034-1.45c-1.537-2.32-1.793-1.946.01-4.004 2.653-3.03 3.298-6.385 2.54-10.095-.338-1.642.267-2.443 1.7-2.93.206-.07.38-.192.574-.284 3.128-1.567 5.457-3.94 6.987-7.115.6-1.257 1.628-1.842 3.083-1.754 1.23.071 2.469.132 3.698.254 1.24.111 2.346-.132 3.38-.862 1.322-.933 2.736-1.733 4.047-2.666.676-.476 1.219-.426 1.854.01 1.045.73 2.192 1.338 3.175 2.14 1.65 1.337 3.514 1.58 5.532 1.357 1.147-.121 2.295-.131 3.442-.273.82-.102 1.28.253 1.608.932.594 1.217 1.301 2.392 1.803 3.64.686 1.692 1.926 2.726 3.534 3.466 1.199.547 2.418 1.074 3.545 1.753.42.254.83.882.84 1.349.03 1.51-.083 3.03-.226 4.55-.133 1.4.03 2.656.942 3.822.912 1.166 1.64 2.473 2.51 3.67.533.73.523 1.368.02 2.077-.604.872-1.085 1.845-1.802 2.615-1.71 1.815-1.864 3.933-1.66 6.244.451 5.089.943 3.822-3.278 5.758-2.294 1.054-4.107 2.341-4.937 4.764-.133.395-.41.74-.563 1.135-.718 1.916-1.721 3.366-4.15 2.595l.011-.01Zm7.406-24.033c.041-10.228-8.164-18.438-18.295-18.64-10.797-.214-19.176 8.808-19.156 18.245.02 10.298 8.318 18.56 18.552 18.752 9.69.182 19.33-7.917 18.9-18.357Z"/><path fill="#fff" d="M47.88 29.324c.42 10.44-9.22 18.54-18.9 18.357-10.234-.193-18.542-8.464-18.552-18.752-.02-9.437 8.359-18.458 19.156-18.246 10.131.203 18.336 8.413 18.295 18.641ZM29.153 12.407c-9.343.03-16.892 7.561-16.872 16.836.031 9.335 7.601 16.745 17.128 16.705 9.875-.051 16.656-8.15 16.748-16.857.093-9.234-7.631-16.715-17.004-16.684Z"/><path fill="#fff" d="M25.23 34.537c-.132-.132-.265-.254-.388-.386-.134-.131-.256-.283-.39-.415a6.59 6.59 0 0 0-.276-.264c-.226-.202 1.28-2.807 1.424-2.666.266.254.522.507.799.76.174.153.276.143.44-.02.461-.466.922-.932 1.393-1.398.523-.517 1.055-1.024 1.588-1.541.328-.314.635-.649.963-.963.266-.264.533-.517.799-.78.379-.376.748-.76 1.137-1.136l.922-.882c.256-.253.512-.517.768-.77l1.199-1.186c.215-.213 2.796 1.267 2.53 1.55-.369.396-.738.812-1.117 1.197-.379.375-.768.74-1.137 1.115-.287.284-.563.578-.86.861-.297.294-.605.578-.902.882-.266.264-.522.538-.799.801-.307.304-.624.598-.932.902-.297.294-.584.588-.87.882-.205.203-.42.396-.625.598-.216.213-.42.426-.636.629-.286.283-.573.557-.86.841-.225.223-.44.436-.655.659l-.574.567c-.226.223-.44.446-.676.66-.215.202-.42.425-.707.526a.47.47 0 0 1-.461-.05"/><path fill="#fff" d="M38.011 22.49c.574.568.543 1.571-.133 2.25-.676.68-1.731.77-2.315.203-.584-.568-.502-1.571.174-2.25.676-.68 1.69-.77 2.264-.203h.01ZM25.59 30.793c-.503-.578-.953-1.024-1.373-1.358-1.506-1.216-3.401.963-1.977 2.27l4.077 3.781-2.152-2.027"/></svg>
